!! 00005] TT[TB
!! Eigene Aufnahme
!!!OTL: Lan hua hua
!!!ARE: Asia, China, Shanxi, Shanbei (n”rdlicher Teil der Provinz Shanxi)
!! Ethnic Group: Han
!! I, 68
!!!SCT: C0020
!!!YEM: Copyright 1995, estate of Helmut Schaffrath.
**kern
*ICvox
*Ivox
*M2/4
*k[b-]
*F:
{8dd
8gg
8dd
16dd
16cc
=1
8dd
8gg
[4dd
=2
4.dd]
8gg}
=3
{8.cc
16dd
8a
16a
16g
=4
8f
4.d}
=5
{8.g
16a
8cc
8cc
=6
8a
8dd
8cc
8a}
=7
{16g
16a
16g
16f
8d
8c
=8
2d}
==
!!!AGN: Shange, Shanqu
!! Saengerin: Huang Bai
!!    In Strophe 6 und 8 ist +2_ in Takt3 Auftakt zu Phrase 2.
!!    Eine Verzierung auf der letzten Note der Phrase 2.
!!    FREIER VORTRAG. Leicht variiert. 2. ((142)) Strophe wird von der
!!    Saengering anders gesungen als 1.
!!!ONB: ESAC (Essen Associative Code) Database: CHINA_006
!!!AMT: simple duple
!!!AIN: vox
!!!EED: Helmut Schaffrath
!!!EEV: 1.0
*-
!!!ONB: Tied note syntax fixed by Craig Sapp, 2004/05/03/
